outputs/icons/general/audit_activity_round.svg

<svg xmlns="http://www.w3.org/2000/svg" width="1200" height="1200" fill="none"><path fill="#000" fill-rule="evenodd" d="M606.345 195.352h179.06c22.725 0 44.515 10.155 60.585 28.231 16.065 18.076 25.095 42.592 25.095 68.155v297.417c-23.36-4.74-47.535-7.23-72.29-7.23-4.485 0-8.945.085-13.39.245V291.738H699.73v83.886c0 6.903-5.595 12.5-12.5 12.5H283.851c-6.903 0-12.5-5.597-12.5-12.5v-83.886h-85.675v674.697h252.396c2.115 33.58 8.815 65.915 19.481 96.385H185.676c-22.723 0-44.515-10.155-60.582-28.23C109.026 1016.515 100 992 100 966.435V291.738c0-25.563 9.026-50.079 25.094-68.155 16.067-18.076 37.859-28.231 60.582-28.231h179.062c13.709-40.482 41.125-72.289 77.966-86.746 65.541-26.988 139.221 11.566 163.641 86.746m-52.17 481.928c-29.975 27.57-55.278 60.14-74.589 96.385H319.544c-26.616 0-48.193-21.575-48.193-48.195 0-26.615 21.577-48.19 48.193-48.19zM515.83 209.468c-8.03-9.038-18.927-14.116-30.289-14.116-11.361 0-22.257 5.078-30.291 14.116s-12.546 21.296-12.546 34.078c0 12.781 4.513 25.038 12.546 34.077 8.034 9.037 18.93 14.115 30.291 14.115s22.259-5.078 30.289-14.115c8.035-9.039 12.55-21.296 12.55-34.077 0-12.782-4.515-25.04-12.55-34.078M319.544 484.509c-26.616 0-48.193 21.576-48.193 48.191s21.577 48.195 48.193 48.195H651.54c26.615 0 48.19-21.58 48.19-48.195s-21.575-48.191-48.19-48.191z"/><path fill="#000" fill-rule="evenodd" d="M716.765 724.575a39.53 39.53 0 0 1 33.41 22.735l107.57 230.51 60.25-96.4a39.54 39.54 0 0 1 33.52-18.58h118.58c21.83 0 39.525 17.7 39.525 39.53s-17.695 39.525-39.525 39.525H973.42l-87.205 139.53a39.52 39.52 0 0 1-35.925 18.5 39.51 39.51 0 0 1-33.41-22.735L709.31 846.68l-60.25 96.4a39.53 39.53 0 0 1-33.52 18.58H496.96c-21.829 0-39.526-17.7-39.526-39.53s17.697-39.525 39.526-39.525h96.67l87.205-139.53a39.53 39.53 0 0 1 35.93-18.5"/></svg>

<svg width="1200" height="1200" viewBox="0 0 1200 1200" fill="none" xmlns="http://www.w3.org/2000/svg"><path fill-rule="evenodd" d="M606.345 195.352H785.405C808.13 195.352 829.92 205.507 845.99 223.583C862.055 241.659 871.085 266.175 871.085 291.738V589.155C847.725 584.415 823.55 581.925 798.795 581.925C794.31 581.925 789.85 582.01 785.405 582.17V291.738H699.73V375.624C699.73 382.527 694.135 388.124 687.23 388.124H283.851C276.948 388.124 271.351 382.527 271.351 375.624V291.738H185.676V966.435H438.072C440.187 1000.015 446.887 1032.35 457.553 1062.82H185.676C162.953 1062.82 141.161 1052.665 125.094 1034.59C109.026 1016.515 100 992 100 966.435V291.738C100 266.175 109.026 241.659 125.094 223.583C141.161 205.507 162.953 195.352 185.676 195.352H364.738C378.447 154.87 405.863 123.063 442.704 108.606C508.245 81.618 581.925 120.172 606.345 195.352ZM554.175 677.28C524.2 704.85 498.897 737.42 479.586 773.665H319.544C292.928 773.665 271.351 752.09 271.351 725.47C271.351 698.855 292.928 677.28 319.544 677.28H554.175ZM515.83 209.468C507.8 200.43 496.903 195.352 485.541 195.352C474.18 195.352 463.284 200.43 455.25 209.468C447.217 218.506 442.704 230.764 442.704 243.546C442.704 256.327 447.217 268.584 455.25 277.623C463.284 286.66 474.18 291.738 485.541 291.738C496.903 291.738 507.8 286.66 515.83 277.623C523.865 268.584 528.38 256.327 528.38 243.546C528.38 230.764 523.865 218.506 515.83 209.468ZM319.544 484.509C292.928 484.509 271.351 506.085 271.351 532.7C271.351 559.315 292.928 580.895 319.544 580.895H651.54C678.155 580.895 699.73 559.315 699.73 532.7C699.73 506.085 678.155 484.509 651.54 484.509H319.544Z" fill="#1D1E23"/><path fill-rule="evenodd" d="M716.765 724.575C731.225 725.455 744.045 734.18 750.175 747.31L857.745 977.82L917.995 881.42C925.22 869.865 937.885 862.84 951.515 862.84H1070.095C1091.925 862.84 1109.62 880.54 1109.62 902.37C1109.62 924.2 1091.925 941.895 1070.095 941.895H973.42L886.215 1081.425C878.535 1093.71 864.75 1100.81 850.29 1099.925C835.825 1099.045 823.005 1090.32 816.88 1077.19L709.31 846.68L649.06 943.08C641.835 954.64 629.17 961.66 615.54 961.66H496.96C475.131 961.66 457.434 943.96 457.434 922.13C457.434 900.3 475.131 882.605 496.96 882.605H593.63L680.835 743.075C688.515 730.79 702.305 723.69 716.765 724.575Z" fill="#1D1E23"/></svg>
